svg/fr/f.svg

<svg xmlns="http://www.w3.org/2000/svg" xmlns:xlink="http://www.w3.org/1999/xlink" width="600" height="360"><path fill="#fff" d="M0 0h600v360H0z"/><g fill="#ed2939"><path d="M40 40L0 0h100v360h100V0h100v360h100V0h100v360h100l-40-40z"/><path d="M40 320L0 360v-90h600v-90H0V90h600V0l-40 40z"/></g><path fill="#002395" d="M40 40h520v280H40z"/><g fill="#fff"><path d="M0 75h560v15H0z"/><path id="a" d="M90 80L76 90l-14 28h56l-14-28z"/><use xlink:href="#a" x="210"/><use xlink:href="#a" x="420"/></g><g id="b" fill="#ffd203"><path d="M188.887 200.48c14.62-5.788 21.817-14.55 22.589-26.919.496-7.435-6.923-16.157-14.866-16.358-24.814-.672-33.11 39.797-32.96 49.674 1.048-.003 6.209-.106 7.49-.056 1.131-6.238.16-13.88 8.089-20.324 7.928-6.445 11.434-1.534 12.425 2.432.991 3.965-3.66 11.954-2.767 11.551zM122.613 200.48c-14.62-5.789-21.817-14.55-22.589-26.919-.496-7.435 6.923-16.157 14.866-16.358 24.814-.672 33.11 39.797 32.96 49.674-1.048-.003-6.209-.106-7.49-.056-1.131-6.238-.16-13.88-8.089-20.324-7.928-6.445-11.434-1.534-12.425 2.432-.991 3.965 3.66 11.954 2.767 11.551z"/><path d="M155.956 110c16.861 17.538 21.389 35.375 10.147 63.948-3.856 9.543-5.488 20.995-5.33 32.898-1.632.038-8.58-.042-10.226-.159.145-11.758-1.804-24.133-5.646-33.835-13.019-29.179-3.636-48.972 10.608-62.852h.224zM164.814 213.585c3.452 9.216 9.545 12.699 14.526 15.14-7.591 3.595-16.365-.309-18.016-2.168.201 2.598.407 9.621-.542 14.364-.642 3.824-2.268 6.028-5.012 9.079-2.845-2.981-4.604-5.384-5.552-8.771-1.153-4.919.066-11.895-.035-14.5-1.317 1.62-11.816 5.518-18.725 2.13 6.432-2.804 12.665-6.07 14.694-15.447.752.047 16.766.037 18.662.037z"/><path d="M135.562 206.25h39.951V214h-39.951z"/></g><use xlink:href="#b" x="144.25" y="50"/><use xlink:href="#b" x="288.5"/></svg>

<?xml version="1.0" encoding="UTF-8"?>
<svg xmlns="http://www.w3.org/2000/svg" xmlns:xlink="http://www.w3.org/1999/xlink" width="600" height="360">
<rect width="600" height="360" fill="#fff"/>
<g fill="#ed2939">
<path d="M40,40 0,0H100V360H200V0H300V360H400V0H500V360H600L560,320z"/>
<path d="M40,320 0,360V270H600V180H0V90H600V0L560,40z"/>
</g>
<rect x="40" y="40" width="520" height="280" fill="#002395"/>
<g fill="#fff">
<rect width="560" height="15" y="75"/>
<path id="t" d="M90,80 76,90 62,118H118L104,90z"/>
<use xlink:href="#t" x="210"/>
<use xlink:href="#t" x="420"/>
</g>
<g id="fleur" fill="#ffd203">
<path d="M188.887,200.48C203.507,194.692 210.704,185.93 211.476,173.561C211.972,166.126 204.553,157.404 196.61,157.203C171.796,156.531 163.5,197 163.65,206.877C164.698,206.874 169.859,206.771 171.14,206.821C172.271,200.583 171.3,192.941 179.229,186.497C187.157,180.052 190.663,184.963 191.654,188.929C192.645,192.894 187.994,200.883 188.887,200.48z"/>
<path d="M122.613,200.48C107.993,194.691 100.796,185.93 100.024,173.561C99.528,166.126 106.947,157.404 114.89,157.203C139.704,156.531 148,197 147.85,206.877C146.802,206.874 141.641,206.771 140.36,206.821C139.229,200.583 140.2,192.941 132.271,186.497C124.343,180.052 120.837,184.963 119.846,188.929C118.855,192.894 123.506,200.883 122.613,200.48z"/>
<path d="M155.956,110C172.817,127.538 177.345,145.375 166.103,173.948C162.247,183.491 160.615,194.943 160.773,206.846C159.141,206.884 152.193,206.804 150.547,206.687C150.692,194.929 148.743,182.554 144.901,172.852C131.882,143.673 141.265,123.88 155.509,110L155.733,110z"/>
<path d="M164.814,213.585C168.266,222.801 174.359,226.284 179.34,228.725C171.749,232.32 162.975,228.416 161.324,226.557C161.525,229.155 161.731,236.178 160.782,240.921C160.14,244.745 158.514,246.949 155.77,250C152.925,247.019 151.166,244.616 150.218,241.229C149.065,236.31 150.284,229.334 150.183,226.729C148.866,228.349 138.367,232.247 131.458,228.859C137.89,226.055 144.123,222.789 146.152,213.412C146.904,213.459 162.918,213.449 164.814,213.449z"/>
<rect x="135.562" y="206.25" width="39.951" height="7.75"/>
</g>
<use xlink:href="#fleur" x="144.25" y="50"/>
<use xlink:href="#fleur" x="288.5"/>
</svg>
